!!!COM: Palestrina, Giovanni Perluigi da
!!!OPR: Missa Virtute magna
!!!OMD: Benedictus
!!!OTL: First Section
**kern	**kern	**kern
*Ibass	*Icalto	*Icant
!Bassus	!Altus	!Cantus
*clefF4	*clefG2	*clefG2
*k[]	*k[]	*k[]
*G:mix	*G:mix	*G:mix
*M4/2	*M4/2	*M4/2
=1	=1	=1
0r	1.g	1r
.	.	[1dd
.	2g	.
=2	=2	=2
0r	1f	2dd]
.	.	2dd
.	4e	1cc
.	4d	.
.	4e	.
.	4f	.
=3	=3	=3
0r	2g	4b
.	.	4a
.	2e	4b
.	.	4cc
.	2f	2dd
.	2g	2b
=4	=4	=4
0r	2a	2cc
.	2.g	2dd
.	.	2b
.	4f	.
.	4e	[2ee
.	4d	.
=5	=5	=5
1r	2c	4ee]
.	.	4dd
.	2e	1cc
[1G	1d	.
.	.	4b
.	.	4a
=6	=6	=6
2G]	2r	1b
2G	1d	.
1F	.	1a
.	2d	.
=7	=7	=7
4E	1c	0r
4D	.	.
4E	.	.
4F	.	.
2G	4B	.
.	4A	.
2E	4B	.
.	4c	.
=8	=8	=8
2F	2d	0r
2G	2B	.
2A	2c	.
[2G	2d	.
=9	=9	=9
4G]	2B	1.g
4F	.	.
4E	2.e	.
4D	.	.
2C	.	.
.	4d	.
2E	[2c	2g
=10	=10	=10
1D	2c]	1f
.	2B	.
[1C	1c	4e
.	.	4d
.	.	4e
.	.	4f
=11	=11	=11
1C]	2r	2g
.	2c	2e
1r	2d	2f
.	2e	2g
=12	=12	=12
1r	4A	2a
.	4B	.
.	4c	2.g
.	4d	.
[1c	1e	.
.	.	4f
.	.	4e
.	.	4d
=13	=13	=13
2c]	2r	1e
2c	1g	.
1B	.	1d
.	2g	.
=14	=14	=14
4A	1f	0r
4G	.	.
4A	.	.
4B	.	.
2c	4e	.
.	4d	.
2A	4e	.
.	4f	.
=15	=15	=15
2B	2g	0r
2c	2e	.
2d	2f	.
[2c	2g	.
=16	=16	=16
4c]	2e	1r
4B	.	.
4A	1a	.
4G	.	.
2F	.	[1cc
2E	[2g	.
=17	=17	=17
1A	2g]	2cc]
.	2f#	2cc
1G	2g	1b
.	[2d	.
=18	=18	=18
1D	4d]	4a
.	4e	4g
.	4f	4a
.	4d	4b
1A	2e	2cc
.	2f#	2a
=19	=19	=19
2G	2g	2b
2F	2.a	2.cc
1G	.	.
.	4g	4b
.	[2g	4b
.	.	8a
.	.	8g
=20	=20	=20
1D	2g]	1a
.	2f#	.
2r	1g	[1g
[2G	.	.
=21	=21	=21
4G]	1r	0g]
4A	.	.
2B	.	.
2c	2r	.
4B	[2d	.
4A	.	.
=22	=22	=22
4B	4d]	1r
4c	4e	.
2d	2f	.
2G	2g	2r
[2d	4f	[2a
.	4e	.
=23	=23	=23
2d]	4f	4a]
.	4g	4b
2c	2a	2cc
2B	2d	2dd
2c	[2g	4cc
.	.	4b
=24	=24	=24
1A	2g]	2.cc
.	2f#	.
.	.	4dd
1G	1g	2ee
.	.	[2dd
=25	=25	=25
2r	1d	4dd]
.	.	4cc
2d	.	4a
.	.	4b
2c	2r	2cc
2B	2g	[2dd
=26	=26	=26
2.A	2f	2dd]
.	2e	2cc#
4G	.	.
2F#	2.d	1dd
[2G	.	.
.	4c	.
=27	=27	=27
4G]	2B	0r
4F	.	.
4E	2.c	.
4D	.	.
2C	.	.
.	4d	.
[2c	4e	.
.	4c	.
=28	=28	=28
2c]	2.d	2r
2B	.	2dd
.	4e	.
2A	2f#	2cc
2G	[2g	2b
=29	=29	=29
1.d	2g]	2.a
.	2f	.
.	.	4g
.	2d	2f
2c	[2e	[2g
=30	=30	=30
2B-	4e]	4g]
.	4d	4f
2B-	1d	4e
.	.	4d
1A	.	2e
.	2c#	2e
=31	=31	=31
1D	4d	2d
.	4e	.
.	4f	2dd
.	4d	.
1r	4e	2cc
.	4f	.
.	2g	2b
=32	=32	=32
1d	4f	2a
.	4g	.
.	4a	2ff
.	4f	.
2c	4g	2ee
.	4f	.
2B	4e	[2dd
.	4d	.
=33	=33	=33
1A	2e	2dd]
.	2e	2cc#
2r	1d	1dd
2d	.	.
=34	=34	=34
2c	1g	2r
2B	.	1dd
2.A	2f	.
.	2e	[2cc
4G	.	.
=35	=35	=35
2F#	2.d	2cc]
1G	.	2b
.	4c	.
.	2B	2g
2F	[2c	[2a
=36	=36	=36
2E	4c]	4a]
.	4B	4g
2E	4A	1g
.	4G	.
1D	2A	.
.	2A	2f#
=37	=37	=37
0G	1G	[0g
.	2r	.
.	2d	.
=38	=38	=38
2r	2c	1g]
2d	2B	.
2c	2e	2r
2B	[2d	2g
=39	=39	=39
1A	2d]	2f
.	2c#	2e
2r	1d	1d
2d	.	.
=40	=40	=40
2c	1g	2r
2B	.	1dd
2.A	2f	.
.	2e	[2cc
4G	.	.
=41	=41	=41
2F#	2.d	2cc]
1G	.	2b
.	4c	.
.	2B	2g
2F	[2c	[2a
=42	=42	=42
1E	4c]	4a]
.	4B	4g
.	4A	1g
.	4G	.
2D	2A	.
2D	2A	2f#
=43	=43	=43
[0G	[0G	[0g
=44	=44	=44
0G]	0G]	0g]
*-	*-	*-
!!!CDT: 1525/^1526/-1594/2/2
!!!OCY: Italia
!!!AGN: Mass (Parody)
!!!AST: renaissance, vocal
!!!ASW: Motet 1532 (Lasson)
!!!PWK: Masses, Book I
!!!RNB: Cadence finals: D
!!!YOR: Le Opere Complete, v. 1, p. 62
!!!YOO: Rome, Italy: Fratelli Scalera
!!!END: 1992//
!!!EED: John Miller
!!!YEC: Copyright 2000, John Miller
!!!YEN: United States of America
!!!YEM: Rights to all derivative electronic formats reserved.
!!!YEM: Refer to licensing agreement for further details.
!!!YEM: This file must be accompanied by the licensing agreement.
!!!YEM: A copy of the licensing agreement may be found at http://www.music-cog.ohio-state.edu/HumdrumDatabases/Palestrina/license.txt
!!!EMD: converted to Humdrum by Bret Aarden
